assets/skill/front-js.svg

<svg width="57" height="57" viewBox="0 0 57 57" fill="none" xmlns="http://www.w3.org/2000/svg">
<rect x="0.124268" width="56.7516" height="56.7516" rx="8.25478" fill="url(#paint0_linear_92_650)"/>
<path d="M50.9427 5.67529H6.05737V51.0766H50.9427V5.67529Z" fill="#F5DE19"/>
<path d="M36.4669 41.1065C36.8537 41.8875 37.4547 42.544 38.2005 43.0003C38.9464 43.4565 39.8067 43.694 40.6824 43.6852C42.4497 43.6852 43.5798 42.8069 43.5798 41.59C43.5798 40.1394 42.4189 39.6205 40.4733 38.7743L39.4064 38.3198C36.3259 37.0159 34.283 35.3832 34.283 31.9309C34.283 28.751 36.715 26.3285 40.53 26.3285C41.765 26.2399 42.9989 26.5146 44.0778 27.1186C45.1568 27.7225 46.0329 28.6288 46.5971 29.7245L43.262 31.8439C43.0448 31.3006 42.6665 30.8358 42.1775 30.5111C41.6884 30.1864 41.1116 30.0172 40.5235 30.0258C40.267 30.0003 40.0079 30.0282 39.7628 30.1077C39.5176 30.1872 39.2918 30.3166 39.0998 30.4876C38.9078 30.6587 38.7537 30.8676 38.6474 31.1011C38.541 31.3346 38.4848 31.5876 38.4823 31.8439C38.4823 33.1155 39.2751 33.6313 41.1056 34.4226L42.1724 34.8771C45.7978 36.4228 47.8472 37.9975 47.8472 41.5384C47.8472 45.3566 44.8298 47.4486 40.7781 47.4486C39.1994 47.5486 37.6253 47.1923 36.2458 46.4227C34.8663 45.6531 33.7403 44.5031 33.0037 43.1115L36.4669 41.1065ZM21.3965 41.474C22.0661 42.6554 22.6758 43.6546 24.1414 43.6546C25.5423 43.6546 26.4275 43.1099 26.4275 40.9904V26.5703H30.6933V41.0468C30.6933 45.4372 28.0992 47.4357 24.323 47.4357C22.9883 47.5083 21.6627 47.1776 20.5205 46.4872C19.3783 45.7968 18.473 44.779 17.9236 43.5676L21.3965 41.474Z" fill="black"/>
<defs>
<linearGradient id="paint0_linear_92_650" x1="28.5001" y1="0" x2="28.5001" y2="56.7516" gradientUnits="userSpaceOnUse">
<stop stop-color="#FDFDFD"/>
<stop offset="1" stop-color="#F5F4F4"/>
</linearGradient>
</defs>
</svg>

<svg xmlns="http://www.w3.org/2000/svg" width="57" height="57" fill="none" viewBox="0 0 57 57"><rect width="56.752" height="56.752" x=".124" fill="url(#paint0_linear_92_650)" rx="8.255"/><path fill="#f5de19" d="M50.943 5.675H6.057v45.402h44.886z"/><path fill="#000" d="M36.467 41.107A4.63 4.63 0 0 0 38.2 43a4.67 4.67 0 0 0 2.482.685c1.768 0 2.898-.878 2.898-2.095 0-1.45-1.161-1.97-3.107-2.816l-1.067-.454c-3.08-1.304-5.123-2.937-5.123-6.39 0-3.179 2.432-5.602 6.247-5.602a6.34 6.34 0 0 1 3.548.79 6.3 6.3 0 0 1 2.52 2.607l-3.336 2.119a2.9 2.9 0 0 0-1.084-1.333 2.9 2.9 0 0 0-1.654-.485 1.87 1.87 0 0 0-1.424.462 1.85 1.85 0 0 0-.618 1.356c0 1.271.793 1.787 2.624 2.579l1.066.454c3.626 1.546 5.675 3.12 5.675 6.661 0 3.819-3.017 5.91-7.069 5.91a8.24 8.24 0 0 1-4.532-1.025 8.17 8.17 0 0 1-3.242-3.312zm-15.07.367c.67 1.181 1.279 2.18 2.744 2.18 1.401 0 2.287-.544 2.287-2.664V26.57h4.265v14.477c0 4.39-2.594 6.389-6.37 6.389a6.65 6.65 0 0 1-3.803-.949 6.6 6.6 0 0 1-2.596-2.92z"/><defs><linearGradient id="paint0_linear_92_650" x1="28.5" x2="28.5" y1="0" y2="56.752" gradientUnits="userSpaceOnUse"><stop stop-color="#fdfdfd"/><stop offset="1" stop-color="#f5f4f4"/></linearGradient></defs></svg>
